projects/flag-game/flags/Japan.svg

<svg viewBox="0 0 1000 667" xmlns="http://www.w3.org/2000/svg" xmlns:xlink="http://www.w3.org/1999/xlink"><clipPath id="a"><path d="m0 0h1000v666.71875h-1000zm0 0"/></clipPath><g clip-path="url(#a)"><path d="m0 666.667969v-666.667969h1000v666.667969zm0 0" fill="#fff" fill-rule="evenodd"/></g><path d="m700 333.332031c0 110.457031-89.546875 200-200 200s-200-89.542969-200-200c0-110.453125 89.546875-200 200-200s200 89.546875 200 200zm0 0" fill="#bc002d" fill-rule="evenodd"/></svg>

<?xml version="1.0" encoding="UTF-8"?>
<svg xmlns="http://www.w3.org/2000/svg" xmlns:xlink="http://www.w3.org/1999/xlink" viewBox="0 0 1000 667" version="1.1">
<defs>
<clipPath id="clip1">
  <path d="M 0 0 L 1000 0 L 1000 666.71875 L 0 666.71875 Z M 0 0 "/>
</clipPath>
</defs>
<g id="surface625">
<g clip-path="url(#clip1)" clip-rule="nonzero">
<path style=" stroke:none;fill-rule:evenodd;fill:rgb(99.998474%,99.998474%,99.998474%);fill-opacity:1;" d="M 0 666.667969 L 0 0 L 1000 0 L 1000 666.667969 Z M 0 666.667969 "/>
</g>
<path style=" stroke:none;fill-rule:evenodd;fill:rgb(73.724365%,0%,17.64679%);fill-opacity:1;" d="M 700 333.332031 C 700 443.789062 610.453125 533.332031 500 533.332031 C 389.546875 533.332031 300 443.789062 300 333.332031 C 300 222.878906 389.546875 133.332031 500 133.332031 C 610.453125 133.332031 700 222.878906 700 333.332031 Z M 700 333.332031 "/>
</g>
</svg>
